X:1
T:Vocalise
T:S. Rachmaninoff, Op. 34 n. 14
T:arrangiamento per flauto  Vasco Magnolato
%%score 1 { ( 2 5 ) | ( 3 4 6 ) }
L:1/8
Q:1/4=53
M:4/4
K:E
V:1 treble nm="Flauto" snm="Fl."
V:2 treble nm="Piano, Christian Davidsson" snm="Pf."
V:5 treble 
V:3 treble 
V:4 treble 
V:6 treble 
V:1
|:"^Lentamente. Molto cantabile" z2 z!p! (e/d/ e3) (c/!<(!d/ |[M:2/4] e!<)!d/c/ d!>(!B/c/ | %2
[M:4/4] d4-)!>)! d!<(!(c/B/ c!<)!!>(!A/B/)!>)! | c4- c(B/A/!<(! G>F!<)! | %4
!>(! G>A!>)! G2-) G/(A/c/e/ f>g | %5
 e3) (=d c2"^trillo ad lib" ^B/8c/8B/8c/8B/8c/8B/8c/8B/8c/8B/8c/8^A/4B/4 | %6
 c4)[Q:1/4=56] z"^Poco più animato"!mf!!<(! c2 B!<)![Q:1/4=54] |[Q:1/4=57] ^A4- A!<(!(ABc!<)! | %8
 c!>(!B/c/ d2-)!>)! d(G/^A/ Bc/d/ | ^e4-) e!<(!(^^cde!<)! | %10
!f! ^e!<(!d/e/!<)! !tenuto!f2-) f!>(!(edc!>)! |!mf! d3) (c/^B/ c3) (G/^A/ | %12
 ^Bc/d/!f! =e2-) e(dc=B | B^A/B/!mf! c2-) c(B/A/ BF/G/ |!<(! ^AB/c/!<)!!f! =d2-) d(cB=A | %15
 G4[Q:1/4=54] ^^F3) (c[Q:1/4=56] |[M:2/4][Q:1/4=53] d>c B/c/^A |[M:4/4] G8) | %18
 z2 z!p! (e/d/ e3) (c/!<(!d/ |[M:2/4] e!<)!d/c/ d!>(!B/c/ | %20
[M:4/4] d4-)!>)! d!<(!(c/B/ c!<)!!>(!A/B/)!>)! | c4- c(B/A/!<(! G>F!<)! | %22
!>(! G>A!>)! G2-) G/(A/c/e/ f>g | %23
 e3) (=d c2"^trillo ad lib" ^B/8c/8B/8c/8B/8c/8B/8c/8B/8c/8B/8c/8^A/4B/4 | %24
 c4)[Q:1/4=56] z"^Poco più animato"!mf!!<(! c2 B!<)![Q:1/4=54] |[Q:1/4=57] ^A4- A!<(!(ABc!<)! | %26
 c!>(!B/c/ d2-)!>)! d(G/^A/ Bc/d/ | ^e4-) e!<(!(^^cde!<)! | %28
!f! ^e!<(!d/e/!<)! !tenuto!f2-) f!>(!(edc!>)! |!mf! d3) (c/^B/ c3) (G/^A/ | %30
 ^Bc/d/!f! =e2-) e(dc=B | B^A/B/!mf! c2-) c(B/A/ BF/G/ |!<(! ^AB/c/!<)!!f! =d2-) d(cB=A | %33
 G4[Q:1/4=54] ^^F3) (c[Q:1/4=56] |[M:2/4][Q:1/4=53] d>c B/c/^A | %35
[M:4/4] G4)[Q:1/4=57] z!mf!"^Poco più mosso" (d2 c[Q:1/4=54][Q:1/4=58] | %36
[Q:1/4=60]!<(! ^B2!<)!!>(! d2-!>)! d"^cresc." (d2) c | ^B2 d2-) d!f!(edc | %38
 Bc[Q:1/4=58]dB[Q:1/4=56] G2-)[Q:1/4=54] G/(^A/^B/f/ | %39
[Q:1/4=53]!p! e4)[Q:1/4=57] z!mf!"^a tempo" (e2!<(! d!<)![Q:1/4=54][Q:1/4=58] | %40
[Q:1/4=60]!>(! c2 e2-)!>)! e"^cresc."(e!<(! dc/B/!<)! | c2!<(! e2-) e!<)!!f!(fed | %42
 cd!>(!ec A2-)!>)!!<(! A/(B/c/e/!<)! |!>(! f4 G3)!>)!!<(! (f |!ff! g6!<)! f2 | %45
 ^ed/e/!>(! f2-)!>)! f"^dim."(=edc | ^B=B/^B/[Q:1/4=58] c2-)[Q:1/4=57] c (=B2 A | %47
[M:2/4][Q:1/4=53]!p! G>F E/F/D |[M:4/4] C4)[Q:1/4=57] z!mf! d2 c[Q:1/4=54][Q:1/4=58] | %49
[Q:1/4=60]!<(! ^B2!<)!!>(! d2-!>)! d"^cresc." (d2 c | ^B2 d2-) d!f!(edc | %51
 Bc[Q:1/4=58]dB[Q:1/4=56] G2-)[Q:1/4=54] G/(^A/^B/f/ | %52
[Q:1/4=53]!p! e4)[Q:1/4=57] z!mf!"^a tempo" (e2!<(! d!<)![Q:1/4=54][Q:1/4=58] | %53
[Q:1/4=60]!>(! c2 e2-)!>)! e"^cresc."(e!<(! dc/B/!<)! | c2!<(! e2-) e!<)!!f!(fed | %55
 cd!>(!ec A2-)!>)!!<(! A/(B/c/e/!<)! |!>(! f4 G3)!>)!!<(! (f |!ff! g6!<)! f2 | %58
 ^ed/e/!>(! f2-)!>)! f"^dim."(=edc | ^B=B/^B/[Q:1/4=58] c2-)[Q:1/4=57] c (=B2 A | %60
[M:2/4][Q:1/4=53]!p! G>F E/F/D |[M:4/4] C4)[Q:1/4=56] z2!p! (EF[Q:1/4=54] | %62
[M:2/4][Q:1/4=57] GF/G/ AG/A/ |[M:4/4] B3) (A/B/ c2 d2 | e3) (f"^cresc." g4-) | %65
 g"^rit."(a[Q:1/4=52]bc'[Q:1/4=46] ag[Q:1/4=41] fe/f/ | %66
[Q:1/4=53]"^a tempo" g3) (f e2"^trillo ad lib." d/8e/8d/8e/8d/8e/8d/8e/8d/8e/8d/8e/8c/4d/4 | %67
"^tenuto ad lib." c8-) |[M:2/4] c4- |[M:4/4] c8[Q:1/4=46][Q:1/4=41][Q:1/4=37] |] %70
V:2
|: [ceg] [CEG] [EG] [EG] [CEG] [CEG] [CEG] [CEG] |[M:2/4] [CEG] [CEG] [CDF] [B,DF] | %2
[M:4/4] [B,DF] [B,DF] [B,DF] [B,DF] [B,CE] [B,CE] [A,CE] [A,CE] | %3
 [G,CE] [G,CE] [G,CE] [G,CE] [G,CF] [G,CF] [G,^B,F] [G,B,F] | %4
 [G,B,F] [G,B,F] [G,B,^E] [G,B,E] [A,C=E] [A,CE] [A,B,D] [A,B,D] | %5
 [G,CE] [G,CE] [A,EF] [A,=DF] [G,CG] [G,CG] [G,^B,F] [G,B,F] | %6
 [G,CE] [G,CE] .[EG]2 [CEG] [CEG] .[CEG]2 | z [CEG] [CEG] ^A/ G/ [^A,EA] G/ =G/ [A,D^G] =G/ F/ | %8
 =G- [^A,B,DG] ^G- [B,DG-] [B,DG-] [B,DG-] [B,DG] [B,D] | %9
 [B,^E] [B,E] [B,E] G/ F/ [B,EG] F/ E/ [B,F] [CE]/ [^DF]/ | %10
 G- [^A,^EG] [A,DF] [DF] [DF] [DF] [DF] [C=E] | z[K:bass] [CD] .[CD]2 z [CD] .[CD]2 | z2 z C =B,4 | %13
 [B,C] [B,C] [B,C] [B,C] [B,C] [B,C] [B,C] [^A,C] | [^A,C] [A,C] [F,B,] B, z [F,B,] [F,B,] [F,B,] | %15
 z4 .^A,2 z [F,C][K:treble] |[M:2/4] [F,^B,F] [A,E]/ [^A,=G]/ ^G/ ^A/ [CD=G] | %17
[M:4/4] [B,DG]3 [eg]/ [df]/ [=Beg] [df]/ [ce]/ [=Af]/- [A-cf]/ [A^B-]/ [B^df]/ | %18
 [ceg] [CEG] [EG] [EG] [CEG] [CEG] [CEG] [CEG] |[M:2/4] [CEG] [CEG] [CDF] [B,DF] | %20
[M:4/4] [B,DF] [B,DF] [B,DF] [B,DF] [B,CE] [B,CE] [A,CE] [A,CE] | %21
 [G,CE] [G,CE] [G,CE] [G,CE] [G,CF] [G,CF] [G,^B,F] [G,B,F] | %22
 [G,B,F] [G,B,F] [G,B,^E] [G,B,E] [A,C=E] [A,CE] [A,B,D] [A,B,D] | %23
 [G,CE] [G,CE] [A,EF] [A,=DF] [G,CG] [G,CG] [G,^B,F] [G,B,F] | %24
 [G,CE] [G,CE] .[EG]2 [CEG] [CEG] .[CEG]2 | z [CEG] [CEG] ^A/ G/ [^A,EA] G/ =G/ [A,D^G] =G/ F/ | %26
 =G- [^A,B,DG] ^G- [B,DG-] [B,DG-] [B,DG-] [B,DG] [B,D] | %27
 [B,^E] [B,E] [B,E] G/ F/ [B,EG] F/ E/ [B,F] [CE]/ [^DF]/ | %28
 G- [^A,^EG] [A,DF] [DF] [DF] [DF] [DF] [C=E] | z[K:bass] [CD] .[CD]2 z [CD] .[CD]2 | z2 z C =B,4 | %31
 [B,C] [B,C] [B,C] [B,C] [B,C] [B,C] [B,C] [^A,C] | [^A,C] [A,C] [F,B,] B, z [F,B,] [F,B,] [F,B,] | %33
 z4 .^A,2 z [F,C][K:treble] |[M:2/4] [F,^B,F] [A,E]/ [^A,=G]/ ^G/ ^A/ [CD=G] | %35
[M:4/4] G- [B,DG-] [B,DG]2 z [^B,DF] [B,DF] [DF]/ [EG]/ | %36
 A- [^B,DFA-] [B,DFA] [FA]/ [EG]/ [B,FA] [EG]/ [DF]/ [B,EG] [DF]/ [EG]/ | %37
 A- [^B,DFA-] [B,DFA] [DF]/ [EG]/ A- [A,CA-] [A,CA] [EG]/ F/ | %38
 G- [A,B,DG-] [A,B,DG] F/ E/ F- [G,B,F-] [G,^B,F] E/ D/ | %39
 E- [G,CE-] [G,CE] c/ B/ [EGc] B/ ^A/ [EGB] =G/ ^G/ | %40
 ^A- [^A,E=GA-] [A,EGA] c/ B/ [E^Gc] B/ A/ [EGB] =G/ ^G/ | .[^A,E=G]2 z [EG] .[E=G]2 z .^G | %42
 z .E[K:bass] =G4 z .A, | C ^B,/ =B,/ ^B, F,/- [F,A,]/ =B,- [F,G,B,] B,/ ^B,/ C/[K:treble] =D/ | %44
 D =D/ C/ D[K:bass] =B,/ ^B,/ [G,B,] [G,B,] [F,A,B,] F,/- [F,A,]/ | %45
 [^E,G,B,] E,/- [E,G,]/ A,2[K:treble] .C2 z E/ D/ | %46
 [^A,B,E] =D/ ^D/ E- [A,CE] [A,CE] D/ E/ [A,CF] E/ F/ |[M:2/4] G- [A,CFG-] [^A,CEG] [^B,DF] | %48
[M:4/4] [EG] [EG] .[EG]2 z [^B,DF] [B,DF] [DF]/ [EG]/ | %49
 A- [^B,DFA-] [B,DFA] [FA]/ [EG]/ [B,FA] [EG]/ [DF]/ [B,EG] [DF]/ [EG]/ | %50
 A- [^B,DFA-] [B,DFA] [DF]/ [EG]/ A- [A,CA-] [A,CA] [EG]/ F/ | %51
 G- [A,B,DG-] [A,B,DG] F/ E/ F- [G,B,F-] [G,^B,F] E/ D/ | %52
 E- [G,CE-] [G,CE] c/ B/ [EGc] B/ ^A/ [EGB] =G/ ^G/ | %53
 ^A- [^A,E=GA-] [A,EGA] c/ B/ [E^Gc] B/ A/ [EGB] =G/ ^G/ | .[^A,E=G]2 z [EG] .[E=G]2 z .^G | %55
 z .E[K:bass] =G4 z .A, | C ^B,/ =B,/ ^B, F,/- [F,A,]/ =B,- [F,G,B,] B,/ ^B,/ C/[K:treble] =D/ | %57
 D =D/ C/ D[K:bass] =B,/ ^B,/ [G,B,] [G,B,] [F,A,B,] F,/- [F,A,]/ | %58
 [^E,G,B,] E,/- [E,G,]/ A,2[K:treble] .C2 z E/ D/ | %59
 [^A,B,E] =D/ ^D/ E- [A,CE] [A,CE] D/ E/ [A,CF] E/ F/ |[M:2/4] G- [A,CFG-] [^A,CEG] [^B,DF] | %61
[M:4/4] [CEG]2 z e/ d/ e- [EGe-] [EGe] c/ d/ |[M:2/4] [CEGe] d/ c/ [CDFd] B/ c/ | %63
[M:4/4] d- [B,DFd-] [B,DFd] [B,DF] [A,CEd] c/ B/ [A,CDc] A/ B/ | %64
 c- [G,CEc-] [G,CEc] [G,CE] [G,CFc] B/ A/[K:bass] .[F,^B,G]3/2[K:treble] F/ | %65
 .[G,B,FG]3/2 A/ G- [B,CEG] G/ A/ c/ e/ [Af] [Ag] | .[Gc]2 z2 c2 z2 | c3 .[Ac] z .[GB] .=G .A | %68
[M:2/4] .[FA]2 z2 |[M:4/4] c8 |] %70
V:3
|: .[CEG]2 C2 B,4 |[M:2/4] A,4 |[M:4/4] G,6[K:bass] F,2 | E,4 D,2 =D,2 | C,6 z2 | %5
 [C,,C,]2 z F, E,2 D,2 | C,3 C/ B,/ C B,/ ^A,/ B, =G,/ ^G,/ | [C,,C,]4 C,2 D, E, | %8
 [G,,D,]3 G,/ F,/ [G,,G,] F,/ ^E,/ F, E,/ D,/ | =D,4- D, ^D,2 ^E,/ D,/ | =D,2 ^D, ^A,/ =A,/ ^A,4 | %11
 ^A,2 [F,,,F,,]4 [^E,,,^E,,]2 | [E,,,E,,]3 G,,/ ^A,,/ [E,,B,,]3 F,, | z4 A,4 | %14
 [=D,,,=D,,F,]3 F,/ G,/ [D,,A,,A,]4 | =D,,2 C,,2 C, B,, ^A,, =A,, | %16
[M:2/4] G,, [C,E,] [=D,^E,] ^D, |[M:4/4] z2 z[K:treble] .G z .F F .E | .[CEG]2 C2[K:bass] B,4 | %19
[M:2/4] A,4 |[M:4/4] G,6 F,2 | E,4 D,2 =D,2 | C,6 z2 | [C,,C,]2 z F, E,2 D,2 | %24
 C,3 C/ B,/ C B,/ ^A,/ B, =G,/ ^G,/ | C,6 D, E, | [G,,D,]3 G,/ F,/ [G,,G,] F,/ ^E,/ F, E,/ D,/ | %27
 =D,4- D, ^D,2 ^E,/ D,/ | =D,2 ^D, ^A,/ =A,/ ^A,4 | ^A,2 [F,,,F,,]4 [^E,,,^E,,]2 | %30
 [E,,,E,,]3 G,,/ ^A,,/ [E,,B,,]3 F,, | z4 A,4 | [=D,,,=D,,F,]3 F,/ G,/ [D,,A,,A,]4 | %33
 =D,,2 C,,2 C, B,, ^A,, =A,, |[M:2/4] G,, [C,E,] [=D,^E,] ^D, |[M:4/4] G,3 F,/ G,/ A,4 | %36
 z4[K:treble] z .e z .d | .f4 z4 | [B,,,B,,]4 D,2 E, F, | [C,,E,]3 C/ B,/ C B,/ ^A,/ B, =G,/ ^G,/ | %40
 z2 C,, C/ B,/ C B,/ ^A,/ B, =G,/ ^G,/ | z2 z A,/ ^G,/ z2 z G,/ =G,/ | %42
 G, E,/ F,/ B,,2 A,,3 A,,/ B,,/ | .C,2 z2 =B,,2 z2 | %44
 D, =D,/ C,/ D, B,,/ ^B,,/ [^E,,C,]2 B,,- [=D,,B,,] | %45
 [C,,C,]2 [C,F,] [C,F,] z [F,A,] [D,F,A,] [E,A,C] | G, F, E,4 D, =D,/ ^D,/ |[M:2/4] E, F, =G, ^G, | %48
[M:4/4] [C,G,]3 F,/ G,/ A,4 | z4[K:treble] z .e z .d | .f4 z4 | [B,,,B,,]4 D,2 E, F, | %52
 [C,,E,]3 C/ B,/ C B,/ ^A,/ B, =G,/ ^G,/ | z2 C,, C/ B,/ C B,/ ^A,/ B, =G,/ ^G,/ | %54
 z2 z A,/ ^G,/ z2 z G,/ =G,/ | G, E,/ F,/ B,,2 A,,3 A,,/ B,,/ | .C,2 z2 =B,,2 z2 | %57
 D, =D,/ C,/ D, B,,/ ^B,,/ [^E,,C,]2 B,,- [=D,,B,,] | %58
 [C,,C,]2 [C,F,] [C,F,] z [F,A,] [D,F,A,] [E,A,C] | G, F, E,4 D, =D,/ ^D,/ |[M:2/4] E, F, =G, ^G, | %61
[M:4/4] [C,G,][K:treble] [CE] [CE] [CE] C C C C |[M:2/4][K:bass] A,4 |[M:4/4] G,6 F,2 | %64
 E,4 D,2 =D,2 | C,4 z [A,CE] [A,D] [A,C]/ D/ | [C,G,E]2 F, E,/ F,/ z2[K:treble] [DF] [DF] | %67
 A,/ G,/ A,/ B,/ C/ =D/ C/[K:bass] B,/ [A,C] B,/ A,/ B,/- [^G,B,]/ C/- [G,C]/ |[M:2/4] C4 | %69
[M:4/4] .C,3/2 G,/ C6 |] %70
V:4
|: x8 |[M:2/4] x4 |[M:4/4] x6[K:bass] x2 | x8 | z4 F,,2 [B,,,B,,]2 | z2 F,,2 G,,4 | C,,6 z2 | x8 | %8
 x8 | G,,8 | F,,4 z4 | x8 | x8 | [G,,B,,E,] [F,,F,] G, A,/ G,/ z2 z F,/ ^E,/ | x8 | x8 | %16
[M:2/4] x4 | %17
[M:4/4] G, G, G,[K:treble] G,/- [G,F]/ [G,EG] G,/- [G,-E]/ [G,=D]/ ^D/ [G,G]/- [G,DG]/ | %18
 x4[K:bass] x4 |[M:2/4] x4 |[M:4/4] x8 | x8 | z4 F,,2 [B,,,B,,]2 | z2 F,,2 G,,4 | C,,6 z2 | %25
 C,,4 z4 | x8 | G,,8 | F,,4 z4 | x8 | x8 | [G,,B,,E,] [F,,F,] G, A,/ G,/ z2 z F,/ ^E,/ | x8 | x8 | %34
[M:2/4] x4 |[M:4/4] x8 | E,[K:treble] [EB]2 f/ e/ f f/- [df]/ [ef] f/- [ef]/ | z G, [EB]2 [DA]4 | %38
 z4 G,,4 | x8 | [C,=G,]4 z4 | [C,=G,]4 [C,A,]4 | C,2 z2 z4 | %43
 =D,,- [D,,-^B,,]/ [D,,-=B,,]/ [D,,^B,,] G,,/ A,,/ ^D,,2- [D,,-=B,,]/ [D,,^B,,]/ C,/ =D,/ | %44
 E,,4 z2 .D,,2 | z2 [F,,,F,,]2 C,2 z2 | F,,6 z2 |[M:2/4] G,,4 |[M:4/4] x8 | %49
 E,[K:treble] [EB]2 f/ e/ f f/- [df]/ [ef] f/- [ef]/ | z G, [EB]2 [DA]4 | z4 G,,4 | x8 | %53
 [C,=G,]4 z4 | [C,=G,]4 [C,A,]4 | C,2 z2 z4 | %56
 =D,,- [D,,-^B,,]/ [D,,-=B,,]/ [D,,^B,,] G,,/ A,,/ ^D,,2- [D,,-=B,,]/ [D,,^B,,]/ C,/ =D,/ | %57
 E,,4 z2 .D,,2 | z2 [F,,,F,,]2 C,2 z2 | F,,6 z2 |[M:2/4] G,,4 |[M:4/4] z4[K:treble] B,4 | %62
[M:2/4][K:bass] x4 |[M:4/4] x8 | x8 | z4 [F,,C,]2 B,,2 | z4 G,4[K:treble] | %67
 z4[K:bass] z2 .=G, .A, |[M:2/4] F,/ D,/ E,/ F,/ G,/ A,/ G, |[M:4/4] x8 |] %70
V:5
|: x8 |[M:2/4] x4 |[M:4/4] x8 | x8 | x8 | x8 | x8 | ^A,3 [A,E] z [A,E] z [A,C] | %8
 .[^A,B,D]2 .[B,D]2 z4 | z2 z [B,^E] z B, z [B,=D] | .[^A,^E]2 z2 z4 | %11
 [CD][K:bass] A,/ G,/ A,- [A,CD] [A,CD] G,/ =G,/ ^G,- [G,CD] | %12
 [G,^B,D] [G,B,D] [G,C] G,/ ^A,/ z [G,C] [G,C] [G,C] | x8 | x8 | %15
 [^E,G,B,] [E,G,B,] [=E,G,B,] [E,G,B,] [E,F,]- [E,-F,-B,] [E,F,C] D/[K:treble] E/ | %16
[M:2/4] z2 .[=B,^E]2 |[M:4/4] z2 z ^B z ^A .=d .e | x8 |[M:2/4] x4 |[M:4/4] x8 | x8 | x8 | x8 | %24
 x8 | ^A,3 [A,E] z [A,E] z [A,C] | .[^A,B,D]2 .[B,D]2 z4 | z2 z [B,^E] z B, z [B,=D] | %28
 .[^A,^E]2 z2 z4 | [CD][K:bass] A,/ G,/ A,- [A,CD] [A,CD] G,/ =G,/ ^G,- [G,CD] | %30
 [G,^B,D] [G,B,D] [G,C] G,/ ^A,/ z [G,C] [G,C] [G,C] | x8 | x8 | %33
 [^E,G,B,] [E,G,B,] [=E,G,B,] [E,G,B,] [E,F,]- [E,-F,-B,] [E,F,C] D/[K:treble] E/ | %34
[M:2/4] z2 .[=B,^E]2 |[M:4/4] .[B,D]2 z2 z2 z ^B, | .[^B,DF]2 z B, z B, z B, | %37
 .[^B,DF]2 z B, .[A,C]2 z [A,C] | .[A,B,D]2 z [A,B,] .[G,B,]2 z [G,^B,] | %39
 .[G,C]2 z [EG] z [EG] z [CE] | .[^A,E=G]2 z [E^G] z [EG] z [CE] | %41
 ^A- [^A,E=GA-] [A,EGA] =A/ ^G/ A- [=A,E=GA-] [A,EGA] [CE]/- [CE=G]/ | %42
 [CEG] C/- [CF]/[K:bass] [=G,CE] [G,CE] [G,CE] [G,CE] [G,CE=G] G,/- [G,B,]/ | %43
 [F,A,]3 .G, .[F,G,]2 [F,G,] [F,G,][K:treble] | [G,^B,]3[K:bass] G, z2 z .G, | %45
 z .A, z2[K:treble] z4 | z [^A,B,] .[A,C]2 z [A,C] z [A,B,] |[M:2/4] .[G,C]2 z2 | %48
[M:4/4] z4 z2 z ^B, | .[^B,DF]2 z B, z B, z B, | .[^B,DF]2 z B, .[A,C]2 z [A,C] | %51
 .[A,B,D]2 z [A,B,] .[G,B,]2 z [G,^B,] | .[G,C]2 z [EG] z [EG] z [CE] | %53
 .[^A,E=G]2 z [E^G] z [EG] z [CE] | %54
 ^A- [^A,E=GA-] [A,EGA] =A/ ^G/ A- [=A,E=GA-] [A,EGA] [CE]/- [CE=G]/ | %55
 [CEG] C/- [CF]/[K:bass] [=G,CE] [G,CE] [G,CE] [G,CE] [G,CE=G] G,/- [G,B,]/ | %56
 [F,A,]3 .G, .[F,G,]2 [F,G,] [F,G,][K:treble] | [G,^B,]3[K:bass] G, z2 z .G, | %58
 z .A, z2[K:treble] z4 | z [^A,B,] .[A,C]2 z [A,C] z [A,B,] |[M:2/4] .[G,C]2 z2 | %61
[M:4/4] z2 z G .[EG]2 z [EG] |[M:2/4] z [CEG] z [B,DF] |[M:4/4] .[B,DF]2 z2 z [A,CE] z [A,CD] | %64
 .[G,CE]2 z2 z [G,CF][K:bass] z [F,^B,][K:treble] | z [G,B,F] .[B,CE]2 .[A,CE]2 z2 | %66
 e- [Gce-] [FAe] [FA=d] [EG] [EG] ^B2 | %67
 [CE] [DF] [EG] ^E/- [EGB]/ [=EAc] D/- [DFA]/ [EB]/- [EFB]/ ^E/- [E^GB]/ | %68
[M:2/4] c- [FAc-] [EGc] [DF] |[M:4/4] [CE] [EG] [EG] [EG] [EG] [EG]2 [EG] |] %70
V:6
|: x8 |[M:2/4] x4 |[M:4/4] x6[K:bass] x2 | x8 | x8 | x8 | x8 | x8 | x8 | x8 | x8 | x8 | x8 | %13
 z2 [E,,,E,,]4 [D,,,D,,]2 | x8 | x8 |[M:2/4] x4 |[M:4/4] x3[K:treble] x5 | x4[K:bass] x4 | %19
[M:2/4] x4 |[M:4/4] x8 | x8 | x8 | x8 | x8 | x8 | x8 | x8 | x8 | x8 | x8 | %31
 z2 [E,,,E,,]4 [D,,,D,,]2 | x8 | x8 |[M:2/4] x4 |[M:4/4] x8 | x[K:treble] x7 | x8 | x8 | x8 | x8 | %41
 z2 C,,2 z2 C,,2 | x8 | x8 | x8 | x8 | x8 |[M:2/4] x4 |[M:4/4] x8 | x[K:treble] x7 | x8 | x8 | x8 | %53
 x8 | z2 C,,2 z2 C,,2 | x8 | x8 | x8 | x8 | x8 |[M:2/4] x4 |[M:4/4] x[K:treble] x7 | %62
[M:2/4][K:bass] x4 |[M:4/4] x8 | x8 | x8 | x6[K:treble] x2 | x7/2[K:bass] x9/2 |[M:2/4] x4 | %69
[M:4/4] x8 |] %70

